X:1
T:Walking in the Air
M:6/8
L:1/8
K:F
A|dd cc A4-|A6 z A |dd cc A3 F | E6 z G |
w: We're walk-ing in the air, - We're float-ing in the moon-lit sky, and
 BB AA G3 D | FF EE D4- | D4 z A |  dd cc A4-
w: peo-ple far be-low are sleep-ing as we fly - I'm hold-ing very tight 
|A6 z A| dd cc A3 F| E6 z G |  BB AA G3 D|
w: -I'm rid-ing in mid-night blue I'm find-ing I can fly so high
FF EE D4- | D8| (^CD E6) | (^FG A6) |
w:a-bove with you. - - Child-ren gaze o-pen mouthed
(=Bc d4) B | G8| (_EF G6) | (_AB c4) (A|c4) ^c2 | A6|
w:ta-ken by sur-prise. No-body | down bel-ow be-lieves their eyes. 

